X: 1
T:After The battle - seconds  "by John Allen - R.A.F. Kinloss"
M:C
L:1/8
Q:80
C:
S:Slow Air ( played as a prelude to battle's o'er )
K:HP
| {g}A{d}B{GdG}c3|
af{g}ed{g}c{G}A-A3|
{g}A{d}B{GdG}c3|  !
{Gdc}d3| |
{g}cd{g}e3|
af{g}e{d}c-c3|  !
{g}cde3|
ae{g}d3c3|] |
| {g}e{d}c3/2{g}B{G}A3/2|  !
ag{a}fd{g}e3|
{g}A{d}B{GdG}c3|
{Gdc}d2| |  !
ae3/2{g}dc3/2|
{g}fed{e}B{GdG}c3|
{g}cde3|  !
a3e3{g}d3{e}B3c3|]
